!!!OTL: Jungfer Doertchen.
!!!OTL-incipit: Es ritt ein Reiter wohlgemut,
!!!ARE: Europa, Mitteleuropa, Deutschland (), Brandenburg
!!!YOR: 3, S. 99
!!    ????
!!!SCT: Q0057G
!!!YEM: Copyright 1995, estate of Helmut Schaffrath.
**kern	**text
*ICvox	*
*M6/8	*
*k[f#]	*
*G:	*
!LO:TX:a:t=Brandenburg	!
{8d	Er
=:	=:
4b	ritt
8a	ein
=1	=1
4g	Rei-
16bL	-ter
16ddJ	.
=:	=:
4gg	wohl-
16ddL	-ge-
16ccJ	.
=2	=2
4b}	-mut.
{8dd	er
=:	=:
4a	trug
8b	ʒwei
=3	=3
[8cc	Fe-
8cc]	-dern
8a	auf
=:	=:
4b	ſei-
8a	-nem
=4	=4
4g}	Hut.
{8dd	er
=:	=:
4a	trug
8b	ʒwei
=5	=5
[8cc	Fe-
8cc]	-dern
8a	auf
=:	=:
4b	ſei-
8a	-nem
=6	=6
4g}	Hut.
==	==
!!!AGN: Ballade, Todesahnung, Tod, Selbstmord
!! Eigentlich Vierzeiler.
!!!ONB: ESAC (Essen Associative Code) Database: BALLADE
!!!AMT: compound duple
!!!AIN: vox
!!!EED: Helmut Schaffrath
!!!EEV: 1.0
!!!source: Deutsche Volkslieder mit ihren Melodien. Herausgegeben vom Deutschen Volksliedarchiv. Dritter Band Balladen. Berlin 1954.
!!!page: 99
!!!ENC: Anna Maria Matuszewska
!!!EEV: 2025/02/18
*-	*-
